X:1
T:Komm, süßer Tod
T:J.S. Bach (BWV 478)
%%score [ 1 2 3 4 ]
L:1/8
Q:1/4=80
M:3/4
K:Eb
V:1 treble nm="Soprano" snm="S"
V:2 treble-8 transpose=12 nm="Alto" snm="A."
V:3 treble transpose=-12 nm="Tenor" snm="T"
V:4 bass nm="Basse" snm="B"
V:1
 c2 B2 (AG) | G6 | e2 d2 (c=B) | =B6 | c2 d2 e2 | (A2 GF) E2 | F4 G2 | G2 =A2 =B2 | (c2 de) (dc) | %9
w: ~1.2.3.Komm' sü- ßer _|Tod,|komm', sel'- ge _|Ruh'!|Komm, füh- re|mich _ _ in|Frie- de,|weil ich der|Welt _ _ bin *|
w: ||||Im Him- mel|ist _ _ es|bes- ser,|da al- le|Lust _ _ viel *|
w: ||||Ich will nun|Je- * * sum|se- hen|und bei den|En- * * geln *|
 (B2 =A2) G2 | B2 _d2 (cB) | A2 (G3 A/B/) | A6 | (fd) B2 A2 | G2 (ed e2) | d6 | e2 (gf)(ed) | %17
w: mü- * de,|Ach komm', ich *|wart' auf _ _|dich,|Komm' * bald und|füh- re _ _|mich,|drück' mir _ die *|
w: grö- * ßer,|drum bin ich *|je- der- * *|zeit|schon * zum Va-|let be- * *|reit,|ich schließ * die *|
w: ste- * hen.|Es ist nun- *|mehr voll- * *|bracht,|drum, * Welt, zu|gu- ter _ _|Nacht,|mein Au- * gen *|
 (cedc) (=Bc) | G6 | (AG) e2 (dc) | c6 :| %21
w: Au- * * * gen *|zu,|komm', * sel'- ge _|Ruh!|
w: Au- * * * gen *|zu,|komm', * sel'- ge _|Ruh!|
w: sind _ _ _ schon *|zu,|komm', * sel'- ge _|Ruh!|
V:2
 E2 F2 D2 | E6 | G2 F2 E2 | D6 | G3 F E2 | (E2 B,2) E2 | (E2 D2) B,2 | G2 ^F2 =F2 | (E2 D2) (DE) | %9
w: 1.2.3.Komm' sü- ßer|Tod,|komm', sel'- ge|Ruh'!|Komm, füh- re|mich _ in|Frie- * de|weil ich der|Welt _ bin *|
w: ||||Im Him- mel|ist _ es|bes- * ser|da al- le|Lust _ viel *|
w: ||||Ich will nun|Je- * sum|se- * hen|und bei den|En- * geln *|
 (D3 C) B,2 | G2 A2 G2 | F2 (F2 =E2) | F4 (cA) | (F3 E) (FD) | (E2 G2) F2 | F6 | E2 (BA) (GE) | %17
w: mü- * de,|Ach komm', ich|wart' auf _|dich, Komm' *|bald _ und *|füh- * re|mich,|drück' mir _ die *|
w: grö- * ßer,|drum bin ich|je- der- *|zeit schon *|zum _ Va- *|let _ be-|reit,|ich schließ * die *|
w: ste- * hen.|Es ist nun-|mehr voll- *|bracht, drum, *|Welt, _ zu *|gu- * ter|Nacht,|mein Au- * gen *|
 (E2 F2) A2 | (D2 E4) | C2 (CG) (GE) | E6 :| %21
w: Au- * gen|zu, _|komm', sel'- * ge _|Ruh!|
w: Au- * gen|zu, _|komm', sel'- * ge _|Ruh!|
w: sind _ schon|zu, _|komm', sel'- * ge _|Ruh!|
V:3
 G2 B2 B2 | B6 | c2 A2 A2 | G6 | (c2 G)G G2 | (c2 B2) B2 | (c2 BA) G2 | B2 c2 G2 | (G2 =A2) (BD) | %9
w: 1.2.3.Komm' sü- ßer|Tod,|komm', sel'- ge|Ruh'!|Komm, _ füh- re|mich _ in|Frie- * * de|weil ich der|Welt _ bin *|
w: ||||Im _ Him- mel|ist _ es|bes- * * ser,|da al- le|Lust _ viel *|
w: ||||Ich _ will- nun|Je- * sum|se- * * hen|und bei den|En- * geln *|
 (G2 ^F2) G2 | e2 (BA) c2 | (cA) (_d2 c2) | c2 (FG Ac) | B4 B2 | (B2 c2) =A2 | (B2 d3 c) | %16
w: mü- * de,|Ach komm', * ich|wart' * auf _|dich, Komm' _ _ _|bald und|füh- * re|mich, _ _|
w: grö- * ßer,|drum bin * ich|je- * der- *|zeit, schon _ _ _|zum Va-|let _ be-|reit, _ _|
w: ste- * hen.|Es ist * nun-|mehr * voll- *|bracht, drum, _ _ _|Welt, zu|gu- * ter|Nacht, _ _|
 E2 e2 B2 | (c2 A2) (dc) | (=B2 c4) | d2 e2 (=Bc) | c6 :| %21
w: drück' mir die|Au- * gen *|zu, _|komm', sel'- ge _|Ruh!|
w: ich schließ die|Au- * gen *|zu, _|komm', sel'- ge _|Ruh!|
w: mein Au- gen|sind _ schon *|zu, _|komm', sel'- ge _|Ruh!|
V:4
 C,2 D,2 B,,2 | E,6 | C,2 F,2 F,2 | G,6 | E,2 =B,,2 C,2 | (C,2 D,2) E,2 | (A,,2 B,,2) E,2 | %7
w: 1.2.3.Komm' sü- ßer|Tod,|komm', sel'- ge|Ruh'!|Komm, füh- re|mich _ in|Frie- * de|
w: ||||Im Him mel|ist _ es|bes- * ser|
w: ||||Ich will nun|Je- * sum|se- * hen|
 E,2 E,2 D,2 | (C,2 ^F,2) (G,C,) | D,4 G,2 | G,2 G,2 =E,2 | F,2 (B,,2 C,2) | (F,2 F,G, F,E,) | %13
w: weil ich der|Welt _ bin *|mü- de,|Ach komm', ich|wart' auf _|dich, Komm' _ _ _|
w: da al- le|Lust _ viel *|grö- ßer,|drum bin ich|je- der- *|zeit schon _ _ _|
w: und bei den|En- * geln *|ste- hen.|Es ist nun-|mehr voll- *|bracht, drum, _ _ _|
 (D,3 C,) (D,B,,) | (E,2 C,2) F,2 | (D,3 C, B,,A,) | G,2 E,2 G,2 | (A,G,F,E,) F,2- | %18
w: bald _ und *|füh- * re|mich, _ _ _|drück' mir die|Au- * * * gen|
w: zum _ Va- *|let _ be-|reit, _ _ _|ich schließ die|Au- * * * gen|
w: Welt, _ zu *|gu- * ter|Nacht _ _ _|mein Au- gen|sind _ _ _ schon|
 F,2 (E,D, E,C,) | F,2 G,2 G,2 | C,6 :| %21
w: _ zu, _ _ _|komm', sel'- ge|Ruh!|
w: _ zu, _ _ _|komm', sel'- ge|Ruh!|
w: _ zu, _ _ _|komm', sel'- ge|Ruh!|

